X:1
T:Title
%%score ( 1 2 3 ) { ( 4 7 ) | ( 5 6 ) }
L:1/8
Q:1/4=120
M:6/8
K:D
V:1 treble nm="MusicXML Part"
V:2 treble 
V:3 treble 
V:4 treble nm="MusicXML Part"
V:7 treble 
V:5 bass 
V:6 bass 
V:1
"^Singst.""^Andante" z6 x4 |"^Alexander Fesca" z6 |"^(Heinrich Heine)" z6 |: x5 x x2 | %4
"^Op.32 No.3" x>xx!<(! xxx!<)! x4 |!>(! x2 x x2!>)! x x4 | x>xx xxx x2 | x3 x2 x x4 | xxx x>xx x2 | %9
 x3 x2 x x4 | (x>x)x x>xx x4 | x3 x7 | z6 | z6 :| z6 x2 | z6 x4 |] %16
V:2
 x10 | x6 | x6 |: z2 z z2 F x2 | F2 F FBd x4 | (d2 c) F2 F x4 | B2 B (BA)G x2 | F3 z2 F x4 | %8
 F2 F B2 B x2 | A3 F2 F x4 | G>FE F>FF x4 | F3 z2 z x4 | x6 | x6 :| x8 | x10 |] %16
V:3
 x10 | x6 | x6 |: z2 z z2 F x2 | F>FF FBd x4 | d2 c F2 F x4 | B>BB BAG x2 | F3 z2 F x4 | %8
 FFF B>BB x2 | A3 F2 F x4 | G>FE F2 F x4 | F3 z2 z x4 | x6 | x6 :| x8 | x10 |] %16
V:4
!p!"^Die einsame Träne""^espress."!<(! ([DF]>"^(1820-1849)"G[DF]!<)! [Ed]2 [Ec]) x4"^Pianof." | %1
!>(! B3!>)! G3 | F3"^." F3 |: [B,DF]2 [DF] [DF]2 [DF] x2 | [DF]2 [DF]!<(! [DF]2 [DF]!<)! x4 | %5
!>(! [CEG]2 [CEG] [CEF]2!>)! [CEF] x4 | [DF]2 [DF] [CEG]2 [CEG] x2 | %7
 [^A,CEF]2 [A,CEF] [A,CEF]2 [A,CEF] x4 | [B,DF]2 [B,DF] [^G,DF]2 [G,DE] x2 | %9
 [=A,CE]2 [A,CE] [A,DF]2 [DF] x4 | [B,CG]>[B,CF][B,CE] [B,DF]2 [^A,EF] x4 | %11
!<(! ([B,DF]>G[DF]!<)! [Ed]2 [Ec]) x4"^© 2009 by CPDL.\nThis edition can be fully distributed, duplicated, performed, and recorded.\nEdited by Christoph Lahme." | %12
!>(! B3 G3!>)! | F3"^." F3 :| [B,DF]3 [B,D]3 x2 | !fermata![B,D]6 x4 x2 |] %16
V:5
 x10 | x3 [E,,E,]2 [E,,E,] | [F,,D,]2 D, (C,>D,C,) |: x2 [B,,,B,,]2 x4 | x10 | x10 | x5 (A,2 ^A,) | %7
 x2 [F,,F,]2 [F,,F,] [F,,F,]2 [F,,F,] x2 | x5 [E,,E,]2 [E,,E,] | %9
 x2 [A,,E,]2 [A,,E,] [D,,D,]2 [D,,D,] x2 | x2 [E,,E,]>[F,,F,][G,,G,] [F,,F,]2 [F,,F,] x2 | x10 | %12
 x3 [E,,E,]2 [E,,E,] | [F,,D,]2 D, (C,>D,C,) :| x2 [B,,,B,,]3 x3 | x10 x2 |] %16
V:6
 x4 [B,,F,B,]2 [B,,F,B,] [B,,G,^A,]2 [B,,G,A,] | [B,,F,B,]2 [B,,F,B,] x3 | x3 F,,3 |: %3
 x4 [B,,F,B,] [B,,F,B,]2 [B,,F,B,] | x4 [B,,F,B,]2 [B,,F,B,] [B,,F,B,]2 [B,,F,B,] | %5
 x4 [B,,G,^A,]2 [B,,G,A,] [B,,F,A,]2 [B,,F,A,] | x2 [B,,F,B,]2 [B,,F,B,] A,,3 | x10 | %8
 x2 [B,,F,]2 [B,,F,] x3 | x10 | x10 | x4 [B,,F,]2 [B,,F,B,] [B,,G,^A,]2 [B,,G,A,] | %12
 [B,,F,B,]2 [B,,F,B,] x3 | x3 F,,3 :| x4 z3"^Version 1.0 (2009/10/7)" z | x4 !fermata!z8 |] %16
V:7
 x10 | D2 D [G,=C]2 [G,C] | [F,B,]2 [F,B,] [^A,E]2 [A,E] |: x8 | x10 | x10 | x8 | x10 | x8 | x10 | %10
 x10 | x10 | D2 D [G,=C]2 [G,C] | [F,B,]2 [F,B,] [^A,E]2 [A,E] :| x8 | x12 |] %16

